X:1
T:G Major Jeremiah Ingalls, 1805
T:Anonymous Author 86. 86. 86. 86. (C. M. D.)
T:Millenium
T:Transcribed from  Ingalls' Christian Harmony, 1805.
%%score [ 1 2 3 ]
L:1/8
Q:1/4=120
M:4/4
K:G
V:1 treble nm="Tr." snm="Tr."
V:2 treble-8 nm="T." snm="T."
V:3 bass nm="B." snm="B."
V:1
"^1. That  glorious  day  is   drawing   near,    When  Zi  – on's   light   shall      come; _____________ She  shall   a–rise  and  shine  on  high,  Bright" G4 | %1
 B3 c B2 dB | G2 G2 B2 e2 | d2 Bd c2 Ac | (BABc B2) G2 | B3 c B2 dB | G2 GA B2 e2 | %7
"^1. as   the  mor – ning    sun;         The north and south their sons resign,  And earth's foundation  bend, ________    Decked   as  a   bride,   Je  –" de fd g2 dc | %8
 B8 | z4 B4 | d2 d2 B2 G2 | cB c2 B4 | d4 G2 d2 | g2 d2 (BGAc | B4) z2 G2 | ^c2 c2 c2 d2 | %16
"^1. –ru–sa–lem    All     glo  –  rious  shall  de  –  scend." G2 d2 e2 g2 | d2 Bd c2 Ac | B8 |] %19
V:2
"^2.  Let  Sa – tan  rage  and  boast  no  more,   Nor  think  his     reign    is     long;                      Though  saints are feeble, weak and poor,  Their" G4 | %1
 d3 e d2 Bc | d2 dB G2 c2 | Bc dB G2 AF | G6 B2 | d3 e d2 Bc | d2 dB G2 c2 | %7
"^2.  great Re–dee–mer's  strong;       In storms  he  is  our  hi – ding  place,   A  co – vert   from  the wind ___________       A  stream  from  rock  in" Bc dB G2 AF | %8
 G8 | z4 d4 | g2 g2 f2 ed | ed e2 d4 | B4 d2 BA | G2 G2 (g2 ef | g4) z2 B2 | e2 ef ed B2 | %16
"^2.  wil–der–ness,   Runs  through  this  wea – ry  land.\n" d2 dB A2 c2 | Bc dB G2 AF | G8 |] %19
V:3
"^3. This crystal stream runs down from heav'n,  It  is – sues   from   the    throne:                     The  floods  of  strife  a–way  are driven,  The\n4. A  thou – sand  years  shall  roll  around,   The  church  shall  be   com –  plete;                      Called by the  glorious  trumpet's sound,  Their" G,4 | %1
 G,3 G, G,2 G,2 | B,2 G,2 E,2 C,2 | G,2 G,2 C,2 D,2 | G,,6 G,,2 | G,3 G, G,2 G,2 | %6
 B,2 G,2 E,2 C,2 | %7
"^3. church  becomes  as     one;       That  peaceful  union  she  shall  know,   And  live  up – on  his  love; _____________   And  shout  and  sing  his\n4. Sa  –  vior    for     to    meet:       They rise with joy and mount on high,  They  fly  to   Je – sus'  arms; ____________   And  gaze  with  won–der" G,2 B,2 D2 D,2 | %8
 [G,,G,]8 | z4 G,4 | G,2 G,2 B,2 CB, | A,G, A,2 B,4 | G,4 B,2 G,2 | D2 D2 (G,2 A,F, | G,4) z2 G,2 | %15
 A,2 A,2 A,2 G,2 | %16
"^____________________________________________________________________________________________________________________________________________________\nTune re-harmonized by Freeman Lewis in 1814, re-titled \nCommunion\n, in E Major, ascribed to J. Robertson.\nWords possibly by John Leland, as suggested in an 1803 book, reported in Steel and Hulan (2010).\nStanzas 2 – 4 from \nHistory of Cosmopolite\n, first published 1813, where the whole hymn \n    is attributed to Lorenzo Dow, 1777-1834.""^3. name  be – low,     As  an   –  gels       do   a     –     bove.\n4. and  de – light,    On  their  be  –  lo  –  ved's   charms." B,2 G,2 E,2 C,2 | %17
 G,2 G,2 C,2 D,2 | G,,8 |] %19

